X:1
T:The Big Black Bull
M:2/4
L:1/8
K:G
 D| GG GE| G/2 G G/2 ED| A A2 G| B d2| D| GG GE| G/2 G G/2 ED| B2 A3/2 A/2|\
 G3| z| d2 e3/2 e/2| d4| B2 c3/2 c/2| B3| z/2 D/2| GG GE| G/2 G G/2 ED|\
 B2 A3/2 A/2| G3||
